public/shapes/characters/324.svg

<?xml version="1.0" encoding="UTF-8"?>
<svg width="60.25px" height="143.85px" version="1.1" xmlns="http://www.w3.org/2000/svg" xmlns:cc="http://creativecommons.org/ns#" xmlns:dc="http://purl.org/dc/elements/1.1/" xmlns:rdf="http://www.w3.org/1999/02/22-rdf-syntax-ns#">
 <metadata>
  <rdf:RDF>
   <cc:Work rdf:about="">
    <dc:format>image/svg+xml</dc:format>
    <dc:type rdf:resource="http://purl.org/dc/dcmitype/StillImage"/>
    <dc:title/>
   </cc:Work>
  </rdf:RDF>
 </metadata>
 <path d="m15.062 115.76c1.0154 0 35.37 0.84617 35.37 0.84617l-6.6002-104.93-12.523-5.2463-12.354 5.9232-2.0308 22.678-3.3847 54.663z" fill="#fff"/>
 <g transform="translate(30.15 71.9)" fill-rule="evenodd">
  <g>
   <path d="m-2.95-46.65q-0.65 0-1.15-0.5-0.5-0.45-0.5-1.15 0-0.65 0.5-1.15t1.15-0.5q0.7 0 1.15 0.5 0.5 0.5 0.5 1.15 0 0.7-0.5 1.15-0.45 0.5-1.15 0.5"/>
   <path d="m2.95-46.65q-0.65 0-1.15-0.5-0.5-0.45-0.5-1.15 0-0.65 0.5-1.15t1.15-0.5q0.7 0 1.15 0.5 0.5 0.5 0.5 1.15 0 0.7-0.5 1.15-0.45 0.5-1.15 0.5"/>
   <path d="m15.55 37.85v-2.95q-14.45-3.9-27.25-0.5v3q12.75-3.6 27.25 0.45m-16.85-37.95-5.9 16.2 7 12.5 6.8-12.05-5.3-16.85-2.6 0.2m-2.2-8.55 2.4 6.15h2.85l2-6.15h-7.25m-9.1-11.55-0.05 0.35q7.4 3.35 16.55 2.45 5.4-0.55 10.4-2.4l-2.4-6.1q-12.1 2.35-22.75 0.2l-1.75 5.5m-0.65 3.1-0.25 4.35h29.25l-0.4-4.55q-5.1 2.05-11 2.65-9.6 1-17.6-2.45m24.8-50.05-0.15 0.35q2.45 0.15 4.25 1.5 2.9 2.2 2.7 7-0.3 7.25-2.85 8.8l3.15 38h11.45l-4.8 49.85q-3-1.3-5.75-2.25v3q2.7 0.9 5.5 2.15l-3 30.7h-36.1l-6-31.15q2.3-1.25 4.35-2.05v-3.1q-2.35 0.9-4.95 2.25l-9.5-49.4h13.75l2.65-42.35-6.75-0.55q3.4-1 7-2.65v-0.1q-4.4 1.5-8.15 0.1 1.35-0.55 2.9-1.55 3.1-2 4.1-4.2-0.7 0.45-1.7 0.85-2 0.8-3.55 0.4 5.4-2.7 11.45-6.6 5.35-3.5 10.1-3.75 5.95-0.3 9.9 4.75m-0.1 39.4 1.9-8.25q-7.3 3.2-15.15 2.5-5.3-0.45-9.85-2.5l0.9 8q4.1 1.95 8.8 2.4 6.65 0.55 13.4-2.15m2.1-11.35-1.4-16.95v-0.05q-0.15-3.5-4.4-5.7-7.05 7.15-18.7 7.9l-0.9 14.8q4 2 8.9 2.7 8.75 1.25 16.5-2.7"/>
  </g>
  <path d="m-15.7 35.65v3.1q-2.05 0.8-4.35 2.05l-0.7 0.4-0.5-3 0.6-0.3q2.6-1.35 4.95-2.25" fill="#fff"/>
  <path d="m19.55 39.1v-3q2.75 0.95 5.75 2.25l0.35 0.1-0.15 3.45-0.4-0.6-0.05-0.05q-2.8-1.25-5.5-2.15" fill="#fff"/>
 </g>
</svg>

<?xml version="1.0" encoding="UTF-8" standalone="no"?>
<svg xmlns:xlink="http://www.w3.org/1999/xlink" height="143.85px" width="60.25px" xmlns="http://www.w3.org/2000/svg">
  <g transform="matrix(1.0, 0.0, 0.0, 1.0, 30.15, 71.9)">
    <path d="M-12.65 -19.85 L-12.6 -20.2 -10.85 -25.7 Q-0.2 -23.55 11.9 -25.9 L14.3 -19.8 Q9.3 -17.95 3.9 -17.4 -5.25 -16.5 -12.65 -19.85" fill="#ffffff" fill-rule="evenodd" stroke="none"/>
    <path d="M-2.95 -46.65 Q-3.6 -46.65 -4.1 -47.15 -4.6 -47.6 -4.6 -48.3 -4.6 -48.95 -4.1 -49.45 -3.6 -49.95 -2.95 -49.95 -2.25 -49.95 -1.8 -49.45 -1.3 -48.95 -1.3 -48.3 -1.3 -47.6 -1.8 -47.15 -2.25 -46.65 -2.95 -46.65" fill="#000000" fill-rule="evenodd" stroke="none"/>
    <path d="M2.95 -46.65 Q2.3 -46.65 1.8 -47.15 1.3 -47.6 1.3 -48.3 1.3 -48.95 1.8 -49.45 2.3 -49.95 2.95 -49.95 3.65 -49.95 4.1 -49.45 4.6 -48.95 4.6 -48.3 4.6 -47.6 4.1 -47.15 3.65 -46.65 2.95 -46.65" fill="#000000" fill-rule="evenodd" stroke="none"/>
    <path d="M15.55 37.85 L15.55 34.9 Q1.1 31.0 -11.7 34.4 L-11.7 37.4 Q1.05 33.8 15.55 37.85 M-1.3 -0.1 L-7.2 16.1 -0.2 28.6 6.6 16.55 1.3 -0.3 -1.3 -0.1 M-3.5 -8.65 L-1.1 -2.5 1.75 -2.5 3.75 -8.65 -3.5 -8.65 M-12.6 -20.2 L-12.65 -19.85 Q-5.25 -16.5 3.9 -17.4 9.3 -17.95 14.3 -19.8 L11.9 -25.9 Q-0.2 -23.55 -10.85 -25.7 L-12.6 -20.2 M-13.25 -17.1 L-13.5 -12.75 15.75 -12.75 15.35 -17.3 Q10.25 -15.25 4.35 -14.65 -5.25 -13.65 -13.25 -17.1 M11.55 -67.15 L11.4 -66.8 Q13.85 -66.65 15.65 -65.3 18.55 -63.1 18.35 -58.3 18.05 -51.05 15.5 -49.5 L18.65 -11.5 30.1 -11.5 25.3 38.35 Q22.3 37.05 19.55 36.1 L19.55 39.1 Q22.25 40.0 25.05 41.25 L22.05 71.95 -14.05 71.95 -20.05 40.8 Q-17.75 39.55 -15.7 38.75 L-15.7 35.65 Q-18.05 36.55 -20.65 37.9 L-30.15 -11.5 -16.4 -11.5 -13.75 -53.85 -20.5 -54.4 Q-17.1 -55.4 -13.5 -57.05 L-13.5 -57.15 Q-17.9 -55.65 -21.65 -57.05 -20.3 -57.6 -18.75 -58.6 -15.65 -60.6 -14.65 -62.8 -15.35 -62.35 -16.35 -61.95 -18.35 -61.15 -19.9 -61.55 -14.5 -64.25 -8.45 -68.15 -3.1 -71.65 1.65 -71.9 7.6 -72.2 11.55 -67.15 M11.45 -27.75 L13.35 -36.0 Q6.05 -32.8 -1.8 -33.5 -7.1 -33.95 -11.65 -36.0 L-10.75 -28.0 Q-6.65 -26.05 -1.95 -25.6 4.7 -25.05 11.45 -27.75 M13.55 -39.1 L12.15 -56.05 12.15 -56.1 Q12.0 -59.6 7.75 -61.8 0.7 -54.65 -10.95 -53.9 L-11.85 -39.1 Q-7.85 -37.1 -2.95 -36.4 5.8 -35.15 13.55 -39.1" fill="#000000" fill-rule="evenodd" stroke="none"/>
    <path d="M-1.1 -2.5 L-3.5 -8.65 3.75 -8.65 1.75 -2.5 -1.1 -2.5" fill="#ffffff" fill-rule="evenodd" stroke="none"/>
    <path d="M-7.2 16.1 L-1.3 -0.1 1.3 -0.3 6.6 16.55 -0.2 28.6 -7.2 16.1" fill="#ffffff" fill-rule="evenodd" stroke="none"/>
    <path d="M15.55 34.9 L15.55 37.85 Q1.05 33.8 -11.7 37.4 L-11.7 34.4 Q1.1 31.0 15.55 34.9" fill="#ffffff" fill-rule="evenodd" stroke="none"/>
    <path d="M-15.7 35.65 L-15.7 38.75 Q-17.75 39.55 -20.05 40.8 L-20.75 41.2 -21.25 38.2 -20.65 37.9 Q-18.05 36.55 -15.7 35.65" fill="#ffffff" fill-rule="evenodd" stroke="none"/>
    <path d="M19.55 39.1 L19.55 36.1 Q22.3 37.05 25.3 38.35 L25.65 38.45 25.5 41.9 25.1 41.3 25.05 41.25 Q22.25 40.0 19.55 39.1" fill="#ffffff" fill-rule="evenodd" stroke="none"/>
  </g>
</svg>
